X: 396
T: Billy In The Lowground
B: jims roots
M:4/4
L:1/8
R: reel
Q: 1/4=100
K:Cmaj
V:1 
G,B,|:"C"CB,CD EGAB|cBcd cAG2|"Am"A2Ac AGEG|e2eg edc2|
"C"CB,CD EGAB|cBcd cAG2|"Am"A2Ac AGED|FED B,C2 :|
"C"eg2ag2 ed | cBcd c2G2|"Am"ea2ea2 ab|c'b ag ed cd|
"C"eg2ag2 ed|cBcd c2G2|"Am"ABAG EGAB|"G"cAGE "C"C4|]
% abcbook-tune_id 6298c245db5a40052dce6399


% abcbook-boost 0
% abcbook-tablature 
% abcbook-transpose 
% abcbook-lastupdated 1665486287665
% abcbook-soundfonts 
% abcbook-repeats 1


